SF_Symbols/airpods.svg

<?xml version="1.0" encoding="UTF-8"?>
<svg xmlns="http://www.w3.org/2000/svg" xmlns:xlink="http://www.w3.org/1999/xlink" width="24" height="24" viewBox="0 0 24 24" version="1.1">
<g id="surface1">
<path style=" stroke:none;fill-rule:nonzero;fill:rgb(100%,100%,100%);fill-opacity:1;" d="M 5.507812 10.617188 C 6.195312 10.625 6.84375 10.507812 7.453125 10.265625 C 8.070312 10.015625 8.613281 9.671875 9.082031 9.234375 C 9.550781 8.789062 9.917969 8.277344 10.183594 7.699219 C 10.449219 7.121094 10.578125 6.503906 10.570312 5.847656 C 10.5625 4.980469 10.324219 4.191406 9.855469 3.480469 C 9.394531 2.761719 8.78125 2.1875 8.015625 1.757812 C 7.257812 1.328125 6.421875 1.113281 5.507812 1.113281 C 4.664062 1.113281 3.925781 1.257812 3.292969 1.546875 C 2.667969 1.835938 2.140625 2.1875 1.710938 2.601562 C 1.28125 3.007812 0.945312 3.394531 0.703125 3.761719 C 0.46875 4.113281 0.351562 4.527344 0.351562 5.003906 L 0.351562 6.726562 C 0.351562 7.1875 0.46875 7.601562 0.703125 7.96875 C 0.9375 8.328125 1.269531 8.714844 1.699219 9.128906 C 2.136719 9.535156 2.667969 9.882812 3.292969 10.171875 C 3.925781 10.453125 4.664062 10.601562 5.507812 10.617188 Z M 2.484375 7.722656 C 2.328125 7.722656 2.195312 7.671875 2.085938 7.570312 C 1.984375 7.460938 1.933594 7.324219 1.933594 7.160156 L 1.933594 4.558594 C 1.933594 4.402344 1.984375 4.269531 2.085938 4.160156 C 2.195312 4.050781 2.328125 3.996094 2.484375 3.996094 C 2.648438 3.996094 2.78125 4.050781 2.882812 4.160156 C 2.992188 4.269531 3.046875 4.402344 3.046875 4.558594 L 3.046875 7.160156 C 3.046875 7.324219 2.992188 7.460938 2.882812 7.570312 C 2.78125 7.671875 2.648438 7.722656 2.484375 7.722656 Z M 6.105469 20.074219 L 9.410156 20.074219 L 9.410156 10.441406 C 8.949219 10.800781 8.433594 11.09375 7.863281 11.320312 C 7.300781 11.539062 6.714844 11.671875 6.105469 11.71875 Z M 7.253906 23.941406 L 8.25 23.941406 C 8.609375 23.941406 8.890625 23.851562 9.09375 23.671875 C 9.304688 23.5 9.410156 23.242188 9.410156 22.898438 L 9.410156 21.246094 L 6.105469 21.246094 L 6.105469 22.898438 C 6.105469 23.242188 6.207031 23.5 6.410156 23.671875 C 6.621094 23.851562 6.902344 23.941406 7.253906 23.941406 Z M 18.492188 10.617188 C 19.335938 10.601562 20.074219 10.453125 20.707031 10.171875 C 21.339844 9.882812 21.871094 9.535156 22.300781 9.128906 C 22.730469 8.714844 23.0625 8.328125 23.296875 7.96875 C 23.53125 7.601562 23.648438 7.1875 23.648438 6.726562 L 23.648438 5.003906 C 23.648438 4.527344 23.53125 4.113281 23.296875 3.761719 C 23.054688 3.394531 22.71875 3.007812 22.289062 2.601562 C 21.859375 2.1875 21.328125 1.835938 20.695312 1.546875 C 20.070312 1.257812 19.335938 1.113281 18.492188 1.113281 C 17.578125 1.113281 16.738281 1.328125 15.972656 1.757812 C 15.214844 2.1875 14.605469 2.761719 14.144531 3.480469 C 13.683594 4.191406 13.445312 4.980469 13.429688 5.847656 C 13.421875 6.503906 13.550781 7.121094 13.816406 7.699219 C 14.082031 8.277344 14.449219 8.789062 14.917969 9.234375 C 15.386719 9.671875 15.925781 10.015625 16.535156 10.265625 C 17.152344 10.507812 17.804688 10.625 18.492188 10.617188 Z M 21.515625 7.722656 C 21.351562 7.722656 21.214844 7.671875 21.105469 7.570312 C 21.003906 7.460938 20.953125 7.324219 20.953125 7.160156 L 20.953125 4.558594 C 20.953125 4.402344 21.003906 4.269531 21.105469 4.160156 C 21.214844 4.050781 21.351562 3.996094 21.515625 3.996094 C 21.671875 3.996094 21.800781 4.050781 21.902344 4.160156 C 22.011719 4.269531 22.066406 4.402344 22.066406 4.558594 L 22.066406 7.160156 C 22.066406 7.324219 22.011719 7.460938 21.902344 7.570312 C 21.800781 7.671875 21.671875 7.722656 21.515625 7.722656 Z M 17.894531 20.074219 L 17.894531 11.71875 C 17.285156 11.671875 16.699219 11.539062 16.136719 11.320312 C 15.574219 11.09375 15.058594 10.800781 14.589844 10.441406 L 14.589844 20.074219 Z M 16.746094 23.941406 C 17.097656 23.941406 17.375 23.851562 17.578125 23.671875 C 17.789062 23.5 17.894531 23.242188 17.894531 22.898438 L 17.894531 21.246094 L 14.589844 21.246094 L 14.589844 22.898438 C 14.589844 23.242188 14.691406 23.5 14.894531 23.671875 C 15.105469 23.851562 15.390625 23.941406 15.75 23.941406 Z M 16.746094 23.941406 "/>
</g>
</svg>

<svg xmlns="http://www.w3.org/2000/svg" width="24" height="24"><path style="stroke:none;fill-rule:nonzero;fill:#fff;fill-opacity:1" d="M5.508 10.617a5.094 5.094 0 0 0 1.945-.351 5.24 5.24 0 0 0 1.629-1.032A4.99 4.99 0 0 0 10.184 7.7c.265-.578.398-1.21.386-1.851 0-.84-.25-1.664-.715-2.368a5.152 5.152 0 0 0-1.84-1.722 5.03 5.03 0 0 0-2.507-.645c-.844 0-1.582.145-2.215.434-.625.289-1.152.64-1.582 1.055-.43.406-.766.793-1.008 1.16-.234.351-.351.765-.351 1.242v1.723c0 .46.117.875.351 1.242.235.36.567.746.996 1.16.438.406.969.754 1.594 1.043.633.281 1.371.43 2.215.445ZM2.484 7.723a.56.56 0 0 1-.398-.153.588.588 0 0 1-.152-.41V4.56c0-.157.05-.29.152-.399a.565.565 0 0 1 .398-.164c.164 0 .297.055.399.164.11.11.164.242.164.399V7.16a.544.544 0 0 1-.156.406.544.544 0 0 1-.407.157Zm3.621 12.351H9.41v-9.633a6.12 6.12 0 0 1-3.305 1.278Zm1.149 3.867h.996c.36 0 .64-.09.844-.27.21-.171.316-.429.316-.773v-1.652H6.105v1.652c0 .344.102.602.305.774.211.18.492.27.844.27Zm11.238-13.324c.844-.015 1.582-.164 2.215-.445.633-.29 1.164-.637 1.594-1.043.43-.414.762-.8.996-1.16.234-.371.355-.801.351-1.242V5.004c0-.477-.117-.89-.351-1.242-.242-.367-.578-.754-1.008-1.16-.43-.414-.96-.766-1.594-1.055-.625-.29-1.36-.434-2.203-.434a5.073 5.073 0 0 0-2.52.645 5.152 5.152 0 0 0-1.827 1.722c-.461.711-.7 1.5-.715 2.368-.012.636.12 1.27.386 1.851.266.578.633 1.09 1.102 1.535.473.438 1.02.79 1.617 1.032.617.242 1.27.359 1.957.351Zm3.024-2.894a.588.588 0 0 1-.41-.153.588.588 0 0 1-.153-.41V4.56c0-.157.05-.29.152-.399a.56.56 0 0 1 .41-.164c.157 0 .286.055.387.164.11.11.164.242.164.399V7.16c0 .164-.054.3-.164.41a.527.527 0 0 1-.386.153Zm-3.621 12.351V11.72a6.048 6.048 0 0 1-1.758-.399 6.38 6.38 0 0 1-1.547-.879v9.633Zm-1.149 3.867c.352 0 .629-.09.832-.27.211-.171.317-.429.317-.773v-1.652H14.59v1.652c0 .344.101.602.305.774.21.18.496.27.855.27Zm0 0"/></svg>
